!!! OTL: Berkowitz262
!!! Chapter: 1
!!! Section: II
!!! Page: 61
!!! Mode: 
!!! Encoder: DJB
**kern
*staff1
*I"Piano
=1-
*clefG2
*k[b-e-]
*B-:
*M4/4
4r
4r
4r
4f/
=2
[2dd\
8dd\L]
8cc\
8b-\
8a\J
=3
8g/L
8b-/J
[4ee-\
8ee-\L]
8dd\
8cc\
8b-\J
=4
4a/
[4ff\
8ff\L]
8ee-\
8dd\
8cc\J
=5
4dd\
4b-\
4r
4en/
=6
4f/
[4dd\
8dd\L]
8cc\
8b-\
8a\J
=7
8g/L
8b-/J
[4ee-\
8ee-\L]
8dd\
8cc\
8b-\J
=8
!!linebreak:original
4a/
[4ff\
8ff\L]
8ee-\
8dd\
8cc\J
=9
2b-\
4r
4dd\
=10
4dd\
8cc\L
8b-\J
4a/
4g/
=11
8f#/L
8g/J
[4a/
8a/L]
8d/
8en/
8f#/J
=12
4g/
8a/L
8b-/J
8cc\L
8dd\J
4ee-\
=13
4ee-\
4a/
4r
4f/
=14
[2dd\
8dd\L]
8cc\
8b-\
8a\J
=15
!!linebreak:original
8g/L
8b-/J
[4ee-\
8ee-\L]
8dd\
8cc\
8b-\J
=16
4a/
[4ff\
8ff\L]
8f\
8g\
8a\J
=17
2cc\
8bn\L
8cc\
8dd\
8cc\J
=18
2.b-\
4r
==
*-
